priv/static/images/languages/php.svg

<svg
  width="200"
  height="200"
  viewBox="0 0 200 200"
  fill="none"
  xmlns="http://www.w3.org/2000/svg"
>
  <g clip-path="url(#clip0_1_832)">
    <path
      d="M35.4167 1.61203e-05H164.583C169.236 -0.00448106 173.843 0.932018 178.142 2.75592C182.441 4.57981 186.347 7.25531 189.636 10.6293C192.926 14.0032 195.535 18.0094 197.313 22.4186C199.091 26.8277 200.004 31.5533 200 36.3248V163.675C200.004 168.447 199.091 173.172 197.313 177.581C195.535 181.991 192.926 185.997 189.636 189.371C186.347 192.745 182.441 195.42 178.142 197.244C173.843 199.068 169.236 200.004 164.583 200H35.4167C30.7645 200.004 26.157 199.068 21.8581 197.244C17.5592 195.42 13.6532 192.745 10.3635 189.371C7.07392 185.997 4.46532 181.991 2.68702 177.581C0.908717 173.172 -0.00436903 168.447 1.57173e-05 163.675V36.3248C-0.00436903 31.5533 0.908717 26.8277 2.68702 22.4186C4.46532 18.0094 7.07392 14.0032 10.3635 10.6293C13.6532 7.25531 17.5592 4.57981 21.8581 2.75592C26.157 0.932018 30.7645 -0.00448106 35.4167 1.61203e-05Z"
      fill="#777BB3"
    />
    <path
      d="M47.1799 111.685C52.0429 111.685 55.6732 110.788 57.9703 109.02C60.2427 107.27 61.8122 104.239 62.6349 100.011C63.4019 96.0582 63.1097 93.2984 61.7667 91.8091C60.3935 90.2879 57.4245 89.5165 52.9425 89.5165H45.1711L40.8628 111.685H47.1799ZM21.7617 138.992C21.401 138.992 21.0584 138.831 20.829 138.552C20.5993 138.274 20.5062 137.907 20.5751 137.552L31.993 78.8059C32.1034 78.238 32.6012 77.8277 33.18 77.8277H57.7885C65.5224 77.8277 71.2789 79.9277 74.8972 84.0699C78.5348 88.2339 79.6582 94.0545 78.2358 101.37C77.657 104.35 76.6614 107.118 75.2769 109.596C73.8908 112.077 72.0588 114.372 69.8311 116.42C67.1645 118.915 64.1464 120.725 60.8687 121.79C57.643 122.841 53.5003 123.374 48.556 123.374H38.5915L35.7459 138.014C35.6355 138.582 35.1381 138.992 34.5593 138.992H21.7617Z"
      fill="black"
    />
    <path
      d="M46.1679 90.7257H52.9426C58.3521 90.7257 60.2311 91.9127 60.8696 92.6201C61.9288 93.7946 62.1287 96.271 61.448 99.7813C60.683 103.711 59.265 106.497 57.2328 108.062C55.1522 109.664 51.7697 110.476 47.18 110.476H42.3296L46.1679 90.7257ZM57.7886 76.6186H33.1797C32.0221 76.6186 31.027 77.4392 30.8061 78.5754L19.3882 137.322C19.2503 138.031 19.4365 138.764 19.8956 139.322C20.3551 139.879 21.0395 140.201 21.7618 140.201H34.559C35.717 140.201 36.7121 139.381 36.933 138.245L39.5884 124.583H48.5561C53.6274 124.583 57.8966 124.03 61.244 122.94C64.6866 121.821 67.8538 119.925 70.6571 117.303C72.9755 115.17 74.8852 112.776 76.3322 110.186C77.7796 107.596 78.8195 104.707 79.4229 101.6C80.9202 93.9002 79.7038 87.7342 75.8078 83.2747C71.9497 78.858 65.8869 76.6186 57.7886 76.6186ZM39.3957 112.894H47.18C52.3396 112.894 56.1828 111.922 58.708 109.978C61.2335 108.034 62.9369 104.789 63.822 100.242C64.6688 95.8756 64.2831 92.7946 62.6648 90.9998C61.0445 89.205 57.8043 88.3073 52.9426 88.3073H44.1744L39.3957 112.894ZM57.7886 79.0369C65.1916 79.0369 70.5922 80.9797 73.9868 84.8656C77.381 88.7515 78.4031 94.1755 77.0488 101.139C76.4914 104.008 75.5486 106.63 74.2214 109.007C72.8925 111.384 71.1573 113.558 69.013 115.53C66.4576 117.921 63.6189 119.625 60.4951 120.64C57.3714 121.658 53.3928 122.164 48.5561 122.164H37.5944L34.559 137.783H21.7618L33.1797 79.0369H57.7886Z"
      fill="white"
    />
    <path
      d="M107.578 123.374C107.217 123.374 106.875 123.213 106.645 122.934C106.415 122.655 106.322 122.289 106.391 121.934L111.442 95.9411C111.922 93.4691 111.804 91.6948 111.108 90.9451C110.683 90.4868 109.404 89.7182 105.624 89.7182H96.4737L90.1235 122.395C90.0131 122.963 89.5153 123.374 88.9365 123.374H76.2401C75.8789 123.374 75.5367 123.213 75.307 122.934C75.0772 122.655 74.9841 122.288 75.0531 121.934L86.471 63.1875C86.5814 62.6196 87.0792 62.2093 87.658 62.2093H100.354C100.716 62.2093 101.058 62.3705 101.287 62.649C101.517 62.928 101.61 63.2943 101.541 63.649L98.7861 77.8279H108.63C116.129 77.8279 121.214 79.15 124.175 81.8698C127.194 84.6445 128.136 89.081 126.975 95.0576L121.663 122.395C121.553 122.963 121.055 123.374 120.476 123.374H107.578Z"
      fill="black"
    />
    <path
      d="M100.354 60.9997H87.658C86.5 60.9997 85.5049 61.8203 85.284 62.9565L73.8661 121.703C73.7282 122.412 73.9144 123.145 74.3739 123.703C74.8334 124.26 75.5178 124.583 76.2401 124.583H88.9365C90.0941 124.583 91.0897 123.762 91.3105 122.626L97.4705 90.9269H105.624C109.398 90.9269 110.19 91.7331 110.222 91.7677C110.451 92.014 110.752 93.1547 110.255 95.7101L105.204 121.703C105.066 122.412 105.252 123.145 105.712 123.703C106.171 124.26 106.856 124.583 107.578 124.583H120.476C121.634 124.583 122.629 123.762 122.85 122.626L128.162 95.2881C129.409 88.8709 128.342 84.0572 124.994 80.9794C121.798 78.0447 116.445 76.6183 108.63 76.6183H100.252L102.728 63.8796C102.866 63.1706 102.68 62.437 102.221 61.88C101.761 61.3225 101.077 60.9997 100.354 60.9997ZM100.354 63.418L97.319 79.0367H108.63C115.747 79.0367 120.655 80.2789 123.357 82.7601C126.059 85.243 126.868 89.2659 125.788 94.827L120.476 122.164H107.578L112.629 96.1716C113.204 93.2147 112.992 91.1978 111.994 90.1224C110.996 89.0471 108.872 88.5086 105.624 88.5086H95.4766L88.9365 122.164H76.2401L87.658 63.418H100.354Z"
      fill="white"
    />
    <path
      d="M147.065 111.685C151.928 111.685 155.558 110.788 157.855 109.02C160.127 107.271 161.697 104.239 162.52 100.011C163.287 96.0582 162.995 93.2984 161.651 91.8091C160.278 90.2879 157.309 89.5165 152.827 89.5165H145.056L140.747 111.685H147.065ZM121.647 138.992C121.286 138.992 120.943 138.831 120.714 138.552C120.484 138.274 120.391 137.907 120.46 137.552L131.878 78.8059C131.988 78.238 132.486 77.8277 133.065 77.8277H157.673C165.407 77.8277 171.164 79.9277 174.782 84.0699C178.42 88.2335 179.543 94.0541 178.121 101.37C177.541 104.35 176.546 107.118 175.162 109.596C173.775 112.077 171.944 114.372 169.716 116.42C167.049 118.915 164.031 120.725 160.753 121.79C157.528 122.841 153.385 123.374 148.441 123.374H138.476L135.631 138.014C135.521 138.582 135.023 138.992 134.444 138.992H121.647Z"
      fill="black"
    />
    <path
      d="M146.053 90.7257H152.827C158.237 90.7257 160.116 91.9127 160.754 92.6201C161.814 93.7946 162.014 96.271 161.333 99.7809C160.568 103.711 159.149 106.497 157.117 108.062C155.037 109.664 151.654 110.476 147.065 110.476H142.215L146.053 90.7257ZM157.673 76.6186H133.065C131.907 76.6186 130.912 77.4392 130.691 78.5754L119.273 137.322C119.135 138.031 119.322 138.764 119.781 139.322C120.24 139.879 120.925 140.201 121.647 140.201H134.444C135.602 140.201 136.597 139.381 136.818 138.245L139.473 124.583H148.441C153.512 124.583 157.781 124.03 161.129 122.94C164.571 121.821 167.739 119.924 170.543 117.302C172.861 115.17 174.77 112.776 176.217 110.186C177.664 107.596 178.704 104.707 179.308 101.6C180.805 93.8998 179.588 87.7338 175.692 83.2743C171.834 78.858 165.772 76.6186 157.673 76.6186ZM139.281 112.894H147.065C152.224 112.894 156.067 111.922 158.593 109.978C161.119 108.034 162.822 104.789 163.707 100.242C164.554 95.8756 164.168 92.7946 162.549 90.9998C160.929 89.205 157.689 88.3073 152.827 88.3073H144.059L139.281 112.894ZM157.673 79.0369C165.076 79.0369 170.477 80.9797 173.871 84.8656C177.266 88.7515 178.288 94.1755 176.934 101.139C176.376 104.008 175.433 106.63 174.106 109.007C172.777 111.384 171.042 113.558 168.898 115.53C166.342 117.921 163.504 119.625 160.38 120.64C157.256 121.658 153.277 122.164 148.441 122.164H137.479L134.444 137.783H121.647L133.065 79.0369H157.673Z"
      fill="white"
    />
  </g>
  <defs>
    <clipPath id="clip0_1_832">
      <rect width="200" height="200" fill="white" />
    </clipPath>
  </defs>
</svg>

<svg xmlns="http://www.w3.org/2000/svg" width="200" height="200" fill="none"><g clip-path="url(#a)"><path fill="#777BB3" d="M35.417 0h129.166c4.653-.004 9.26.932 13.559 2.756a35.3 35.3 0 0 1 11.494 7.873 36.4 36.4 0 0 1 7.677 11.79A37.1 37.1 0 0 1 200 36.325v127.35a37.1 37.1 0 0 1-2.687 13.906 36.4 36.4 0 0 1-7.677 11.79 35.3 35.3 0 0 1-11.494 7.873A34.6 34.6 0 0 1 164.583 200H35.417a34.6 34.6 0 0 1-13.559-2.756 35.3 35.3 0 0 1-11.494-7.873 36.4 36.4 0 0 1-7.677-11.79A37.1 37.1 0 0 1 0 163.675V36.325a37.1 37.1 0 0 1 2.687-13.906 36.4 36.4 0 0 1 7.677-11.79 35.3 35.3 0 0 1 11.494-7.873A34.6 34.6 0 0 1 35.417 0"/><path fill="#000" d="M47.18 111.685c4.863 0 8.493-.897 10.79-2.665 2.273-1.75 3.842-4.781 4.665-9.009.767-3.953.475-6.713-.868-8.202-1.373-1.521-4.343-2.293-8.824-2.293H45.17l-4.308 22.169zm-25.418 27.307a1.208 1.208 0 0 1-1.187-1.44l11.418-58.746a1.21 1.21 0 0 1 1.187-.978h24.609c7.733 0 13.49 2.1 17.108 6.242 3.638 4.164 4.761 9.985 3.339 17.3-.579 2.98-1.575 5.748-2.96 8.226-1.385 2.481-3.217 4.776-5.445 6.824-2.666 2.495-5.685 4.305-8.962 5.37-3.226 1.051-7.369 1.584-12.313 1.584h-9.964l-2.846 14.64c-.11.568-.608.978-1.187.978z"/><path fill="#fff" d="M46.168 90.726h6.775c5.41 0 7.288 1.187 7.927 1.894 1.059 1.175 1.259 3.651.578 7.161-.765 3.93-2.183 6.716-4.215 8.281-2.08 1.602-5.463 2.414-10.053 2.414h-4.85zm11.62-14.107H33.18c-1.158 0-2.153.82-2.374 1.956l-11.418 58.747a2.42 2.42 0 0 0 2.374 2.879h12.797c1.158 0 2.153-.82 2.374-1.956l2.655-13.662h8.968c5.071 0 9.34-.553 12.688-1.643 3.443-1.119 6.61-3.015 9.413-5.637 2.319-2.133 4.228-4.527 5.675-7.117s2.488-5.479 3.09-8.586c1.498-7.7.282-13.866-3.614-18.325-3.858-4.417-9.921-6.656-18.02-6.656m-18.392 36.275h7.784q7.74 0 11.528-2.916t5.114-9.736q1.27-6.55-1.157-9.242-2.43-2.693-9.722-2.693h-8.769zm18.393-33.857q11.105 0 16.198 5.829 5.092 5.828 3.062 16.273-.837 4.303-2.828 7.868-1.993 3.565-5.208 6.523-3.832 3.587-8.518 5.11-4.685 1.526-11.939 1.524H37.594l-3.035 15.619H21.762L33.18 79.037z"/><path fill="#000" d="M107.578 123.374a1.21 1.21 0 0 1-1.187-1.44l5.051-25.993c.48-2.472.362-4.246-.334-4.996-.425-.458-1.704-1.227-5.484-1.227h-9.15l-6.35 32.677a1.21 1.21 0 0 1-1.187.979H76.24a1.208 1.208 0 0 1-1.187-1.44l11.418-58.746a1.21 1.21 0 0 1 1.187-.979h12.696a1.207 1.207 0 0 1 1.187 1.44l-2.755 14.179h9.844c7.499 0 12.584 1.322 15.545 4.042 3.019 2.774 3.961 7.211 2.8 13.188l-5.312 27.337a1.21 1.21 0 0 1-1.187.979z"/><path fill="#fff" d="M100.354 61H87.658c-1.158 0-2.153.82-2.374 1.956l-11.418 58.747a2.42 2.42 0 0 0 2.374 2.88h12.697a2.42 2.42 0 0 0 2.374-1.957l6.16-31.7h8.153c3.774 0 4.566.807 4.598.842.229.246.53 1.387.033 3.942l-5.051 25.993a2.417 2.417 0 0 0 2.374 2.88h12.898a2.42 2.42 0 0 0 2.374-1.957l5.312-27.338c1.247-6.417.18-11.23-3.168-14.309-3.196-2.934-8.549-4.36-16.364-4.36h-8.378l2.476-12.74a2.418 2.418 0 0 0-2.374-2.88m0 2.418-3.035 15.619h11.311q10.675 0 14.727 3.723 4.052 3.725 2.431 12.067l-5.312 27.337h-12.898l5.051-25.992q.862-4.436-.635-6.05-1.498-1.613-6.37-1.613H95.477l-6.54 33.655H76.24l11.418-58.746z"/><path fill="#000" d="M147.065 111.685c4.863 0 8.493-.897 10.79-2.665 2.272-1.749 3.842-4.781 4.665-9.009.767-3.953.475-6.713-.869-8.202-1.373-1.521-4.342-2.293-8.824-2.293h-7.771l-4.309 22.169zm-25.418 27.307a1.207 1.207 0 0 1-1.187-1.44l11.418-58.746c.11-.568.608-.978 1.187-.978h24.608c7.734 0 13.491 2.1 17.109 6.242 3.638 4.164 4.761 9.984 3.339 17.3-.58 2.98-1.575 5.748-2.959 8.226-1.387 2.481-3.218 4.776-5.446 6.824-2.667 2.495-5.685 4.305-8.963 5.37-3.225 1.051-7.368 1.584-12.312 1.584h-9.965l-2.845 14.64c-.11.568-.608.978-1.187.978z"/><path fill="#fff" d="M146.053 90.726h6.774c5.41 0 7.289 1.187 7.927 1.894 1.06 1.175 1.26 3.651.579 7.16-.765 3.931-2.184 6.717-4.216 8.282-2.08 1.602-5.463 2.414-10.052 2.414h-4.85zm11.62-14.107h-24.608c-1.158 0-2.153.82-2.374 1.956l-11.418 58.747a2.42 2.42 0 0 0 2.374 2.879h12.797c1.158 0 2.153-.82 2.374-1.956l2.655-13.662h8.968c5.071 0 9.34-.553 12.688-1.643 3.442-1.119 6.61-3.016 9.414-5.638 2.318-2.132 4.227-4.526 5.674-7.116s2.487-5.479 3.091-8.586c1.497-7.7.28-13.866-3.616-18.326-3.858-4.416-9.92-6.655-18.019-6.655m-18.392 36.275h7.784q7.739 0 11.528-2.916 3.788-2.916 5.114-9.736 1.27-6.55-1.158-9.242-2.43-2.693-9.722-2.693h-8.768zm18.392-33.857q11.106 0 16.198 5.829t3.063 16.273q-.837 4.303-2.828 7.868-1.993 3.565-5.208 6.523-3.833 3.587-8.518 5.11-4.685 1.526-11.939 1.524h-10.962l-3.035 15.619h-12.797l11.418-58.746z"/></g><defs><clipPath id="a"><path fill="#fff" d="M0 0h200v200H0z"/></clipPath></defs></svg>
